X: 31718
T: Pasucáis Pa Cabaniel.les
R: jig
M: 6/8
K: Dmajor
f3 gfg|afd Adf|gec Ace|~f3 dAd|
~f3 gfg|afd Adf|gec Ace|1 fdc dBA:|2 fdc dfg||
|:afd faf|gec Ace|gea gfe|~f3 dfg|
afd faf|gec Ace|gea gfe|1 fdc dfg:|2 fdc dBA||

